src/pictures/icons/warningIcon.svg

<svg width="16" height="16" viewBox="0 0 16 16" fill="none" xmlns="http://www.w3.org/2000/svg">
<path d="M8 5.16602V8.66602" stroke="#292D32" stroke-linecap="round" stroke-linejoin="round"/>
<path d="M14.0533 5.72067V10.2807C14.0533 11.0273 13.6533 11.7207 13.0066 12.1007L9.04663 14.3873C8.39996 14.7607 7.59995 14.7607 6.94661 14.3873L2.98661 12.1007C2.33995 11.7273 1.93994 11.034 1.93994 10.2807V5.72067C1.93994 4.97401 2.33995 4.28065 2.98661 3.90065L6.94661 1.61398C7.59328 1.24065 8.3933 1.24065 9.04663 1.61398L13.0066 3.90065C13.6533 4.28065 14.0533 4.96734 14.0533 5.72067Z" stroke="#292D32" stroke-linecap="round" stroke-linejoin="round"/>
<path d="M8 10.8008V10.8674" stroke="#292D32" stroke-linecap="round" stroke-linejoin="round"/>
</svg>

<svg width="16" height="16" fill="none" xmlns="http://www.w3.org/2000/svg"><path d="M8 5.166v3.5M14.053 5.72v4.56c0 .747-.4 1.44-1.046 1.82l-3.96 2.287a2.108 2.108 0 0 1-2.1 0l-3.96-2.286a2.1 2.1 0 0 1-1.047-1.82V5.72c0-.747.4-1.44 1.047-1.82l3.96-2.287a2.109 2.109 0 0 1 2.1 0l3.96 2.287a2.108 2.108 0 0 1 1.046 1.82zM8 10.8v.067" stroke="#292D32" stroke-linecap="round" stroke-linejoin="round"/></svg>
